public/static/img/user/payment.svg

<svg width="24" height="24" viewBox="0 0 24 24" fill="none" xmlns="http://www.w3.org/2000/svg">
<path d="M22.9016 19.9647C22.9016 20.2693 22.8491 20.5529 22.7455 20.8169C22.5421 21.3374 22.1407 21.756 21.6293 21.9812C21.3742 22.0937 21.0936 22.1492 20.7891 22.1492H3.3608C2.92343 22.1493 2.49524 22.0238 2.12713 21.7877C1.75902 21.5515 1.46648 21.2145 1.28429 20.8169C1.16346 20.5492 1.10203 20.2585 1.10424 19.9647V7.98579C1.10424 7.37814 1.3158 6.86052 1.7404 6.43741C1.94137 6.23126 2.18244 6.06846 2.44874 5.95905C2.71504 5.84964 3.00093 5.79594 3.28878 5.80126H20.717C21.3247 5.80126 21.8423 6.01281 22.2654 6.43741C22.69 6.86202 22.9016 7.37814 22.9016 7.98579V11.2506H17.4522C16.8446 11.2506 16.327 11.4591 15.9039 11.8747C15.6972 12.0728 15.534 12.3117 15.4245 12.5762C15.315 12.8406 15.2616 13.1249 15.2677 13.4111C15.2827 13.8267 15.3727 14.1958 15.5318 14.5154C15.6593 14.787 15.8724 15.036 16.1679 15.2596C16.4635 15.4846 16.8926 15.5956 17.4522 15.5956H22.9016V19.9647ZM19.6368 4.69699H8.73811C9.60232 4.24838 10.4185 3.81627 11.1867 3.40067C11.8589 3.04808 12.522 2.6955 13.1792 2.34441C13.8349 1.99183 14.348 1.72026 14.7156 1.52821C15.2752 1.22364 15.7763 1.08411 16.2159 1.10811C16.6555 1.13212 17.0276 1.20864 17.3322 1.33617C17.6848 1.51171 17.9879 1.74427 18.2444 2.03234L19.6368 4.69699ZM16.372 13.4111C16.372 13.1065 16.477 12.8515 16.684 12.6429C16.784 12.5412 16.9037 12.4611 17.0358 12.4074C17.168 12.3537 17.3097 12.3277 17.4522 12.3309C17.7568 12.3309 18.0119 12.4359 18.2204 12.6429C18.429 12.8515 18.5325 13.108 18.5325 13.4111C18.5325 13.7157 18.4275 13.9753 18.2204 14.1913C18.1222 14.2961 18.0031 14.3792 17.8708 14.435C17.7384 14.4908 17.5958 14.5182 17.4522 14.5154C17.3086 14.5182 17.166 14.4908 17.0337 14.435C16.9014 14.3792 16.7822 14.2961 16.684 14.1913C16.5828 14.0885 16.503 13.9666 16.4494 13.8327C16.3958 13.6987 16.3695 13.5554 16.372 13.4111Z" fill="#171717"/>
<path d="M15 13.5C15 12.1193 16.1193 11 17.5 11H22.8984V16H17.5C16.1193 16 15 14.8807 15 13.5Z" fill="#00A609"/>
<circle cx="17.5" cy="13.5" r="1.5" fill="#171717"/>
<mask id="mask0_384_8695" style="mask-type:alpha" maskUnits="userSpaceOnUse" x="1" y="1" width="22" height="22">
<path d="M22.9016 19.9647C22.9016 20.2693 22.8491 20.5529 22.7455 20.8169C22.5421 21.3374 22.1407 21.756 21.6293 21.9812C21.3742 22.0937 21.0936 22.1492 20.7891 22.1492H3.3608C2.92343 22.1493 2.49524 22.0238 2.12713 21.7877C1.75902 21.5515 1.46648 21.2145 1.28429 20.8169C1.16346 20.5492 1.10203 20.2585 1.10424 19.9647V7.98579C1.10424 7.37814 1.3158 6.86052 1.7404 6.43741C1.94137 6.23126 2.18244 6.06846 2.44874 5.95905C2.71504 5.84964 3.00093 5.79594 3.28878 5.80126H20.717C21.3247 5.80126 21.8423 6.01281 22.2654 6.43741C22.69 6.86202 22.9016 7.37814 22.9016 7.98579V11.2506H17.4522C16.8446 11.2506 16.327 11.4591 15.9039 11.8747C15.6972 12.0728 15.534 12.3117 15.4245 12.5762C15.315 12.8406 15.2616 13.1249 15.2677 13.4111C15.2827 13.8267 15.3727 14.1958 15.5318 14.5154C15.6593 14.787 15.8724 15.036 16.1679 15.2596C16.4635 15.4846 16.8926 15.5956 17.4522 15.5956H22.9016V19.9647ZM19.6368 4.69699H8.73811C9.60232 4.24838 10.4185 3.81627 11.1867 3.40067C11.8589 3.04808 12.522 2.6955 13.1792 2.34441C13.8349 1.99183 14.348 1.72026 14.7156 1.52821C15.2752 1.22364 15.7763 1.08411 16.2159 1.10811C16.6555 1.13212 17.0276 1.20864 17.3322 1.33617C17.6848 1.51171 17.9879 1.74427 18.2444 2.03234L19.6368 4.69699ZM16.372 13.4111C16.372 13.1065 16.477 12.8515 16.684 12.6429C16.784 12.5412 16.9037 12.4611 17.0358 12.4074C17.168 12.3537 17.3097 12.3277 17.4522 12.3309C17.7568 12.3309 18.0119 12.4359 18.2204 12.6429C18.429 12.8515 18.5325 13.108 18.5325 13.4111C18.5325 13.7157 18.4275 13.9753 18.2204 14.1913C18.1222 14.2961 18.0031 14.3792 17.8708 14.435C17.7384 14.4908 17.5958 14.5182 17.4522 14.5154C17.3086 14.5182 17.166 14.4908 17.0337 14.435C16.9014 14.3792 16.7822 14.2961 16.684 14.1913C16.5828 14.0885 16.503 13.9666 16.4494 13.8327C16.3958 13.6987 16.3695 13.5554 16.372 13.4111Z" fill="#E29D13"/>
</mask>
<g mask="url(#mask0_384_8695)">
<rect x="12.79" y="-17" width="16" height="42" transform="rotate(37.8828 12.79 -17)" fill="white" fill-opacity="0.1"/>
</g>
</svg>

<svg width="24" height="24" fill="none" xmlns="http://www.w3.org/2000/svg"><path d="M22.902 19.965c0 .304-.053.588-.157.852a2.11 2.11 0 0 1-1.116 1.164 2.06 2.06 0 0 1-.84.168H3.361a2.284 2.284 0 0 1-2.077-1.332 2.034 2.034 0 0 1-.18-.852V7.985c0-.607.212-1.124.636-1.548a2.108 2.108 0 0 1 1.549-.636h17.428c.608 0 1.125.212 1.548.636.425.425.637.941.637 1.549v3.265h-5.45a2.13 2.13 0 0 0-1.548.624 2.066 2.066 0 0 0-.636 1.536c.015.416.105.785.264 1.104.127.272.34.521.636.745.296.225.725.336 1.284.336h5.45v4.369ZM19.637 4.697H8.738c.864-.449 1.68-.88 2.449-1.296a297.39 297.39 0 0 0 1.992-1.057c.656-.352 1.169-.624 1.537-.816.56-.304 1.06-.444 1.5-.42.44.024.812.1 1.116.228.353.176.656.408.912.696l1.393 2.665Zm-3.265 8.714c0-.304.105-.56.312-.768a1.045 1.045 0 0 1 .768-.312c.305 0 .56.105.768.312.209.208.313.465.313.768 0 .305-.106.564-.313.78a1.025 1.025 0 0 1-.768.324 1.026 1.026 0 0 1-.768-.324 1.087 1.087 0 0 1-.312-.78Z" fill="#171717"/><path d="M15 13.5a2.5 2.5 0 0 1 2.5-2.5h5.398v5H17.5a2.5 2.5 0 0 1-2.5-2.5Z" fill="#00A609"/><circle cx="17.5" cy="13.5" r="1.5" fill="#171717"/><mask id="a" style="mask-type:alpha" maskUnits="userSpaceOnUse" x="1" y="1" width="22" height="22"><path d="M22.902 19.965c0 .304-.053.588-.157.852a2.11 2.11 0 0 1-1.116 1.164 2.06 2.06 0 0 1-.84.168H3.361a2.284 2.284 0 0 1-2.077-1.332 2.034 2.034 0 0 1-.18-.852V7.985c0-.607.212-1.124.636-1.548a2.108 2.108 0 0 1 1.549-.636h17.428c.608 0 1.125.212 1.548.636.425.425.637.941.637 1.549v3.265h-5.45a2.13 2.13 0 0 0-1.548.624 2.066 2.066 0 0 0-.636 1.536c.015.416.105.785.264 1.104.127.272.34.521.636.745.296.225.725.336 1.284.336h5.45v4.369ZM19.637 4.697H8.738c.864-.449 1.68-.88 2.449-1.296a297.39 297.39 0 0 0 1.992-1.057c.656-.352 1.169-.624 1.537-.816.56-.304 1.06-.444 1.5-.42.44.024.812.1 1.116.228.353.176.656.408.912.696l1.393 2.665Zm-3.265 8.714c0-.304.105-.56.312-.768a1.045 1.045 0 0 1 .768-.312c.305 0 .56.105.768.312.209.208.313.465.313.768 0 .305-.106.564-.313.78a1.025 1.025 0 0 1-.768.324 1.026 1.026 0 0 1-.768-.324 1.087 1.087 0 0 1-.312-.78Z" fill="#E29D13"/></mask><g mask="url(#a)"><path fill="#fff" fill-opacity=".1" d="m12.79-17 12.628 9.825-25.79 33.149L-13 16.149z"/></g></svg>
